icons/mocha-dark.svg

<svg width="256" height="256" viewBox="0 0 256 256" fill="none" xmlns="http://www.w3.org/2000/svg">
<path d="M196 0H60C26.8629 0 0 26.8629 0 60V196C0 229.137 26.8629 256 60 256H196C229.137 256 256 229.137 256 196V60C256 26.8629 229.137 0 196 0Z" fill="#282828"/>
<path fill-rule="evenodd" clip-rule="evenodd" d="M212.961 183.734L133.732 229.512C132.062 230.484 130.163 230.996 128.23 230.996C126.297 230.996 124.399 230.484 122.728 229.512L43.4995 183.734C40.0865 181.75 38 178.119 38 174.27V82.7255C38 78.7655 40.0913 75.2412 43.4995 73.2612L122.733 27.484C124.404 26.512 126.302 26 128.235 26C130.168 26 132.066 26.512 133.737 27.484L212.966 73.2612C216.379 75.246 218.47 78.8769 218.47 82.7255V174.227C218.359 178.08 216.268 181.711 212.966 183.691L212.961 183.734Z" fill="#8D6748"/>
<path d="M128.121 43.2176C129.207 43.2365 130.269 43.5403 131.2 44.0987L199.643 83.6019C200.576 84.1614 201.349 84.9513 201.888 85.8957C202.427 86.8401 202.715 87.9073 202.722 88.9948V168.001C202.715 169.089 202.427 170.156 201.888 171.1C201.349 172.045 200.576 172.835 199.643 173.394L131.2 212.897C130.208 213.449 129.264 213.778 128.121 213.778C127.034 213.774 125.968 213.469 125.042 212.897L56.5994 173.394C55.6669 172.835 54.8939 172.045 54.3547 171.1C53.8155 170.156 53.5282 169.089 53.5205 168.001V88.9948C53.5282 87.9073 53.8155 86.8401 54.3547 85.8957C54.8939 84.9513 55.6669 84.1614 56.5994 83.6019L125.042 44.0987C126.035 43.5468 127.134 43.2176 128.121 43.2176ZM128.121 39.916C126.475 39.916 124.82 40.4001 123.392 41.2376L54.9486 80.7408C53.5099 81.5577 52.3139 82.7421 51.4829 84.1727C50.6519 85.6033 50.2157 87.229 50.2189 88.8835V167.89C50.2189 171.303 51.981 174.377 54.9486 176.032L123.392 215.536C124.82 216.417 126.471 216.857 128.121 216.857C129.772 216.857 131.423 216.373 132.851 215.536L201.294 176.032C202.733 175.215 203.929 174.031 204.76 172.601C205.591 171.17 206.027 169.544 206.024 167.89V88.8786C206.024 85.4657 204.262 82.3916 201.294 80.7359L132.851 41.2425C131.423 40.3614 129.772 39.9209 128.121 39.9209V39.916ZM137.852 88.8786C137.852 88.3267 137.368 87.7797 136.753 87.7797H116.067C115.515 87.7797 114.968 88.2638 114.968 88.8786C114.968 92.6208 115.52 105.493 121.02 111.767C121.237 111.985 121.504 112.096 121.794 112.096H130.992C131.137 112.1 131.281 112.073 131.415 112.016C131.549 111.959 131.669 111.874 131.767 111.767C137.271 105.605 137.818 92.7321 137.818 88.8786H137.852ZM129.709 108.906H123.222C123.077 108.91 122.933 108.882 122.799 108.825C122.666 108.769 122.546 108.684 122.448 108.577C118.706 104.22 118.265 95.3705 118.158 92.2916C118.158 91.7397 118.643 91.1927 119.257 91.1927H133.781C134.332 91.1927 134.88 91.6768 134.88 92.2916C134.88 95.3705 134.328 104.065 130.59 108.577C130.261 108.795 130.038 108.906 129.709 108.906ZM128.499 85.5722C128.499 85.5722 132.459 83.263 130.038 79.0851C128.61 76.8824 127.947 75.0186 128.499 74.2441C127.071 76.0062 124.645 77.8749 127.289 81.8349C128.17 82.8273 128.61 84.9089 128.499 85.5722ZM124.142 85.9014C124.142 85.9014 126.785 84.3619 125.134 81.5444C124.142 80.1163 123.706 78.7947 124.142 78.3493C123.15 79.5596 121.61 80.7698 123.367 83.5196C123.919 84.0714 124.142 85.456 124.142 85.9401V85.9014Z" fill="white"/>
<path d="M133.127 98.6768C132.643 101.649 131.805 105.057 129.932 107.26C129.714 107.478 129.448 107.589 129.274 107.589H123.769C123.551 107.589 123.217 107.478 123.111 107.26C121.789 105.614 120.908 103.406 120.361 101.097C120.361 101.097 126.742 101.978 130.373 100.613C133.016 99.6208 133.127 98.6768 133.127 98.6768ZM60.8305 116.502H64.897L71.6116 126.847L78.3261 116.502H82.3926V138.509H78.5391V122.776L71.6116 133.077H71.5002L64.7227 122.843V138.577H60.8692L60.8305 116.502ZM102.318 138.838C100.736 138.833 99.1685 138.535 97.6953 137.957C96.3289 137.413 95.092 136.589 94.0645 135.537C93.0468 134.503 92.2598 133.266 91.7553 131.906C91.2034 130.584 90.8742 129.001 90.8742 127.549V127.438C90.8742 125.898 91.2034 124.465 91.7553 123.081C92.3072 121.759 93.0769 120.549 94.1758 119.45C95.2033 118.398 96.4403 117.573 97.8066 117.029C99.2347 116.371 100.779 116.148 102.43 116.148C104.012 116.153 105.58 116.452 107.053 117.029C108.419 117.573 109.656 118.398 110.684 119.45C111.702 120.483 112.489 121.721 112.993 123.081C113.545 124.402 113.874 125.985 113.874 127.438V127.549C113.874 129.088 113.545 130.521 112.993 131.906C112.441 133.227 111.671 134.438 110.573 135.537C109.545 136.589 108.308 137.413 106.942 137.957C105.514 138.616 103.969 138.838 102.318 138.838ZM102.318 135.319C103.417 135.319 104.41 135.101 105.291 134.66C106.145 134.239 106.925 133.681 107.6 133.01C108.258 132.351 108.699 131.47 109.14 130.589C109.485 129.635 109.672 128.631 109.691 127.617V127.505C109.691 126.406 109.474 125.414 109.14 124.426C108.801 123.488 108.278 122.627 107.6 121.895C106.925 121.223 106.145 120.666 105.291 120.244C104.41 119.76 103.422 119.585 102.318 119.585C101.29 119.568 100.271 119.793 99.3461 120.244C98.4922 120.666 97.7123 121.223 97.0369 121.895C96.3785 122.553 95.938 123.434 95.4974 124.315C95.1516 125.269 94.9652 126.273 94.9455 127.287V127.399C94.9455 128.498 95.1634 129.49 95.4974 130.478C95.836 131.416 96.3595 132.277 97.0369 133.01C97.7123 133.681 98.4922 134.239 99.3461 134.66C100.276 135.096 101.291 135.321 102.318 135.319ZM132.469 138.838C130.956 138.844 129.457 138.545 128.063 137.957C126.737 137.405 125.531 136.529 124.544 135.537C123.526 134.503 122.739 133.266 122.235 131.906C121.683 130.478 121.354 129.001 121.354 127.549V127.438C121.354 125.898 121.683 124.359 122.235 123.081C122.792 121.748 123.573 120.52 124.544 119.45C125.571 118.398 126.808 117.573 128.175 117.029C129.645 116.442 131.215 116.143 132.798 116.148C133.79 116.148 134.667 116.26 135.548 116.366L137.857 117.024C138.515 117.354 139.178 117.683 139.725 118.123L141.371 119.551L138.84 122.456C138.007 121.699 137.083 121.049 136.09 120.52C135.032 119.987 133.861 119.721 132.677 119.745C131.684 119.728 130.702 119.954 129.816 120.403C128.962 120.825 128.182 121.383 127.507 122.054C126.848 122.713 126.408 123.594 125.967 124.475C125.621 125.429 125.435 126.433 125.415 127.447V127.559C125.415 128.658 125.633 129.65 125.967 130.638C126.306 131.576 126.829 132.437 127.507 133.169C128.165 133.828 128.935 134.491 129.816 134.815C130.697 135.14 131.684 135.474 132.72 135.474C134.042 135.474 135.252 135.256 136.133 134.699C137.145 134.085 138.102 133.385 138.994 132.608L141.526 135.14C140.974 135.798 140.427 136.239 139.764 136.786C139.101 137.333 138.443 137.667 137.828 137.996C137.1 138.365 136.322 138.626 135.519 138.771C134.526 138.988 133.582 138.988 132.546 138.988L132.469 138.838ZM149.195 116.502H153.048V125.637H163.611V116.502H167.465V138.509H163.611V129.311H153.038V138.509H149.185L149.195 116.502ZM184.515 116.39H188.035L197.717 138.514H193.65L191.447 133.189H181.102L178.793 138.514H174.833L184.515 116.39ZM190.015 129.815L186.272 121.013L182.53 129.815H190.015ZM58.0808 145.442H198.375V146.652H58.0808V145.442ZM198.375 104.07H138.733C138.733 104.554 138.622 104.844 138.622 105.28H198.37L198.375 104.07ZM58.0808 104.07V105.28H114.31C114.31 104.796 114.198 104.505 114.198 104.07H58.0808Z" fill="white"/>
</svg>

<svg xmlns="http://www.w3.org/2000/svg" width="256" height="256" fill="none"><path fill="#282828" d="M196 0H60C26.863 0 0 26.863 0 60v136c0 33.137 26.863 60 60 60h136c33.137 0 60-26.863 60-60V60c0-33.137-26.863-60-60-60"/><path fill="#8D6748" fill-rule="evenodd" d="m212.961 183.734-79.229 45.778a10.94 10.94 0 0 1-11.004 0L43.5 183.734c-3.413-1.984-5.5-5.615-5.5-9.464V82.725c0-3.96 2.091-7.484 5.5-9.464l79.233-45.777a10.94 10.94 0 0 1 11.004 0l79.229 45.777c3.413 1.985 5.504 5.616 5.504 9.465v91.501c-.111 3.853-2.202 7.484-5.504 9.464z" clip-rule="evenodd"/><path fill="#fff" d="M128.121 43.218a6.2 6.2 0 0 1 3.079.88l68.443 39.504a6.34 6.34 0 0 1 3.079 5.393V168a6.33 6.33 0 0 1-3.079 5.393L131.2 212.897c-.992.552-1.936.881-3.079.881a5.9 5.9 0 0 1-3.079-.881l-68.443-39.503a6.33 6.33 0 0 1-3.078-5.393V88.995a6.34 6.34 0 0 1 3.078-5.393l68.443-39.503c.993-.552 2.092-.881 3.079-.881m0-3.302c-1.646 0-3.301.484-4.729 1.322L54.949 80.74a9.34 9.34 0 0 0-4.73 8.142v79.007c0 3.413 1.762 6.487 4.73 8.142l68.443 39.504a9 9 0 0 0 4.729 1.321c1.651 0 3.302-.484 4.73-1.321l68.443-39.504a9.35 9.35 0 0 0 4.73-8.142v-79.01c0-3.413-1.762-6.487-4.73-8.143l-68.443-39.494a9 9 0 0 0-4.73-1.321zm9.731 48.963c0-.552-.484-1.1-1.099-1.1h-20.686c-.552 0-1.099.485-1.099 1.1 0 3.742.552 16.614 6.052 22.888.217.218.484.329.774.329h9.198a1 1 0 0 0 .775-.329c5.504-6.162 6.051-19.035 6.051-22.888zm-8.143 20.027h-6.487a1.01 1.01 0 0 1-.774-.329c-3.742-4.357-4.183-13.206-4.29-16.285 0-.552.485-1.1 1.099-1.1h14.524c.551 0 1.099.485 1.099 1.1 0 3.079-.552 11.773-4.29 16.285-.329.218-.552.329-.881.329m-1.21-23.334s3.96-2.309 1.539-6.487c-1.428-2.203-2.091-4.066-1.539-4.84-1.428 1.761-3.854 3.63-1.21 7.59.881.992 1.321 3.074 1.21 3.737m-4.357.33s2.643-1.54.992-4.358c-.992-1.428-1.428-2.75-.992-3.195-.992 1.21-2.532 2.42-.775 5.17.552.552.775 1.937.775 2.421z"/><path fill="#fff" d="M133.127 98.677c-.484 2.972-1.322 6.38-3.195 8.583-.218.218-.484.329-.658.329h-5.505c-.218 0-.552-.111-.658-.329-1.322-1.646-2.203-3.854-2.75-6.163 0 0 6.381.881 10.012-.484 2.643-.992 2.754-1.936 2.754-1.936M60.83 116.502h4.067l6.715 10.345 6.714-10.345h4.067v22.007h-3.854v-15.733l-6.927 10.301H71.5l-6.777-10.234v15.734h-3.854zm41.488 22.336a12.8 12.8 0 0 1-4.623-.881 10.5 10.5 0 0 1-3.63-2.42 10.3 10.3 0 0 1-2.31-3.631 11.7 11.7 0 0 1-.88-4.357v-.111c0-1.54.328-2.973.88-4.357a11.1 11.1 0 0 1 2.42-3.631 10.5 10.5 0 0 1 3.632-2.421c1.428-.658 2.972-.881 4.623-.881 1.582.005 3.15.304 4.623.881a10.5 10.5 0 0 1 3.631 2.421 10.25 10.25 0 0 1 2.309 3.631c.552 1.321.881 2.904.881 4.357v.111c0 1.539-.329 2.972-.881 4.357a11.1 11.1 0 0 1-2.42 3.631 10.5 10.5 0 0 1-3.631 2.42c-1.428.659-2.973.881-4.624.881m0-3.519q1.65.001 2.973-.659a8.8 8.8 0 0 0 2.309-1.65c.658-.659 1.099-1.54 1.54-2.421a9.3 9.3 0 0 0 .551-2.972v-.112c0-1.099-.217-2.091-.551-3.079a7.45 7.45 0 0 0-1.54-2.531 8.8 8.8 0 0 0-2.309-1.651c-.881-.484-1.869-.659-2.973-.659a6.5 6.5 0 0 0-2.972.659 8.8 8.8 0 0 0-2.31 1.651c-.657.658-1.098 1.539-1.539 2.42a9.3 9.3 0 0 0-.552 2.972v.112c0 1.099.218 2.091.552 3.079a7.5 7.5 0 0 0 1.54 2.532 8.8 8.8 0 0 0 2.31 1.65 7 7 0 0 0 2.971.659m30.151 3.519a11.2 11.2 0 0 1-4.406-.881c-1.326-.552-2.532-1.428-3.519-2.42a10.25 10.25 0 0 1-2.309-3.631c-.552-1.428-.881-2.905-.881-4.357v-.111c0-1.54.329-3.079.881-4.357a12.7 12.7 0 0 1 2.309-3.631 10.5 10.5 0 0 1 3.631-2.421c1.47-.587 3.04-.886 4.623-.881.992 0 1.869.112 2.75.218l2.309.658c.658.33 1.321.659 1.868 1.099l1.646 1.428-2.531 2.905a13.6 13.6 0 0 0-2.75-1.936 7.26 7.26 0 0 0-3.413-.775 6.1 6.1 0 0 0-2.861.658 8.8 8.8 0 0 0-2.309 1.651c-.659.659-1.099 1.54-1.54 2.421a9.3 9.3 0 0 0-.552 2.972v.112c0 1.099.218 2.091.552 3.079a7.45 7.45 0 0 0 1.54 2.531c.658.659 1.428 1.322 2.309 1.646.881.325 1.868.659 2.904.659 1.322 0 2.532-.218 3.413-.775a20.7 20.7 0 0 0 2.861-2.091l2.532 2.532c-.552.658-1.099 1.099-1.762 1.646s-1.321.881-1.936 1.21a8.4 8.4 0 0 1-2.309.775c-.993.217-1.937.217-2.973.217zm16.726-22.336h3.853v9.135h10.563v-9.135h3.854v22.007h-3.854v-9.198h-10.573v9.198h-3.853zm35.32-.112h3.52l9.682 22.124h-4.067l-2.203-5.325h-10.345l-2.309 5.325h-3.96zm5.5 13.425-3.743-8.802-3.742 8.802zM58.081 145.442h140.294v1.21H58.081zm140.294-41.372h-59.642c0 .484-.111.774-.111 1.21h59.748zm-140.294 0v1.21h56.229c0-.484-.112-.775-.112-1.21z"/></svg>
